packages/ui-solid/icons/notifications_colored_square_32.svg

<svg width="32" height="32" viewBox="0 0 32 32" fill="none" xmlns="http://www.w3.org/2000/svg">
<path d="M1 10.6C1 7.23968 1 5.55953 1.65396 4.27606C2.2292 3.14708 3.14708 2.2292 4.27606 1.65396C5.55953 1 7.23969 1 10.6 1H21.4C24.7603 1 26.4405 1 27.7239 1.65396C28.8529 2.2292 29.7708 3.14708 30.346 4.27606C31 5.55953 31 7.23969 31 10.6V21.4C31 24.7603 31 26.4405 30.346 27.7239C29.7708 28.8529 28.8529 29.7708 27.7239 30.346C26.4405 31 24.7603 31 21.4 31H10.6C7.23968 31 5.55953 31 4.27606 30.346C3.14708 29.7708 2.2292 28.8529 1.65396 27.7239C1 26.4405 1 24.7603 1 21.4V10.6Z" fill="#FF3A30"/>
<path d="M9.41748 21.4189C9.02458 21.4189 8.71745 21.3276 8.49609 21.145C8.27474 20.9624 8.16406 20.7189 8.16406 20.4146C8.16406 20.1379 8.2443 19.8695 8.40479 19.6094C8.56527 19.3493 8.76449 19.0947 9.00244 18.8457C9.24593 18.5967 9.48665 18.3477 9.72461 18.0986C9.90723 17.9105 10.0483 17.6642 10.1479 17.3599C10.2531 17.0555 10.3306 16.7318 10.3804 16.3887C10.4302 16.0456 10.4661 15.7135 10.4883 15.3926C10.5049 14.3301 10.6183 13.3838 10.8286 12.5537C11.0389 11.7236 11.3682 11.0264 11.8164 10.4619C12.2702 9.89746 12.8651 9.48242 13.6011 9.2168C13.756 8.67448 14.041 8.21517 14.4561 7.83887C14.8711 7.46256 15.383 7.27441 15.9917 7.27441C16.368 7.27441 16.7111 7.35189 17.021 7.50684C16.7277 7.85547 16.4953 8.25114 16.3237 8.69385C16.1522 9.13656 16.0664 9.60417 16.0664 10.0967C16.0664 10.8271 16.2463 11.4967 16.606 12.1055C16.9712 12.7142 17.4554 13.2012 18.0586 13.5664C18.6673 13.9261 19.3397 14.106 20.0757 14.106C20.3136 14.106 20.5433 14.0838 20.7646 14.0396C20.986 13.9953 21.2018 13.9316 21.4121 13.8486C21.4398 14.0921 21.4591 14.3439 21.4702 14.604C21.4868 14.8586 21.4979 15.1214 21.5034 15.3926C21.5256 15.7135 21.5615 16.0456 21.6113 16.3887C21.6611 16.7318 21.7358 17.0555 21.8354 17.3599C21.9406 17.6642 22.0845 17.9105 22.2671 18.0986C22.505 18.3477 22.743 18.5967 22.981 18.8457C23.2244 19.0947 23.4264 19.3493 23.5869 19.6094C23.7474 19.8695 23.8276 20.1379 23.8276 20.4146C23.8276 20.7189 23.717 20.9624 23.4956 21.145C23.2743 21.3276 22.9671 21.4189 22.5742 21.4189H9.41748ZM15.9917 24.7476C15.5269 24.7476 15.109 24.6452 14.7383 24.4404C14.3675 24.2357 14.0687 23.9673 13.8418 23.6353C13.6149 23.3032 13.4849 22.9435 13.4517 22.5562H18.54C18.5013 22.9435 18.3685 23.3032 18.1416 23.6353C17.9202 23.9673 17.6242 24.2357 17.2534 24.4404C16.8826 24.6452 16.4621 24.7476 15.9917 24.7476ZM20.084 12.9771C19.5527 12.9771 19.0685 12.847 18.6313 12.5869C18.1997 12.3268 17.8538 11.9782 17.5938 11.541C17.3337 11.1038 17.2036 10.6224 17.2036 10.0967C17.2036 9.57096 17.3337 9.08952 17.5938 8.65234C17.8538 8.21517 18.1997 7.86654 18.6313 7.60645C19.0685 7.34635 19.5527 7.21631 20.084 7.21631C20.6042 7.21631 21.0828 7.34635 21.52 7.60645C21.9572 7.86654 22.3058 8.21517 22.5659 8.65234C22.826 9.08952 22.9561 9.57096 22.9561 10.0967C22.9561 10.6224 22.826 11.1038 22.5659 11.541C22.3058 11.9782 21.9572 12.3268 21.52 12.5869C21.0828 12.847 20.6042 12.9771 20.084 12.9771Z" fill="white"/>
</svg>

<svg xmlns="http://www.w3.org/2000/svg" width="32" height="32" fill="none"><path fill="#FF3A30" d="M1 10.6c0-3.36 0-5.04.654-6.324a6 6 0 0 1 2.622-2.622C5.56 1 7.24 1 10.6 1h10.8c3.36 0 5.04 0 6.324.654a6 6 0 0 1 2.622 2.622C31 5.56 31 7.24 31 10.6v10.8c0 3.36 0 5.04-.654 6.324a6 6 0 0 1-2.622 2.622C26.44 31 24.76 31 21.4 31H10.6c-3.36 0-5.04 0-6.324-.654a6 6 0 0 1-2.622-2.622C1 26.44 1 24.76 1 21.4z"/><path fill="#fff" d="M9.417 21.419q-.589 0-.92-.274a.9.9 0 0 1-.333-.73q0-.416.24-.806.241-.39.598-.763.366-.374.723-.747a1.9 1.9 0 0 0 .423-.74q.158-.456.232-.97t.108-.996q.025-1.595.34-2.84.316-1.245.988-2.091.682-.848 1.785-1.245.232-.814.855-1.378.622-.565 1.536-.565.565 0 1.029.233a4.2 4.2 0 0 0-.697 1.187 3.9 3.9 0 0 0-.258 1.403q0 1.095.54 2.008a4.2 4.2 0 0 0 1.453 1.461q.912.54 2.017.54.357 0 .689-.066a4 4 0 0 0 .647-.191q.042.365.058.755.025.382.033.789.034.48.108.996.075.514.224.97.159.457.432.74l.714.747q.364.373.606.763.24.39.24.806 0 .456-.331.73-.333.274-.922.274zm6.575 3.329q-.697 0-1.254-.308a2.6 2.6 0 0 1-.896-.805 2.2 2.2 0 0 1-.39-1.079h5.088a2.3 2.3 0 0 1-.398 1.08q-.333.497-.889.804-.555.308-1.261.308m4.092-11.77q-.796 0-1.453-.391a3 3 0 0 1-1.037-1.046 2.77 2.77 0 0 1-.39-1.444q0-.788.39-1.445a3 3 0 0 1 1.037-1.046q.657-.39 1.453-.39.78 0 1.436.39.656.391 1.046 1.046.39.657.39 1.445t-.39 1.444-1.046 1.046-1.436.39"/></svg>
